dist/images/icons/icon-twitter.svg

<svg width="21" height="17" viewBox="0 0 21 17" fill="none" xmlns="http://www.w3.org/2000/svg">
<path d="M20.5263 2.01064C19.7715 2.33626 18.95 2.57061 18.1039 2.66188C18.9824 2.13999 19.6402 1.31549 19.954 0.34308C19.1297 0.833455 18.2266 1.17731 17.2849 1.35941C16.8913 0.938633 16.4153 0.603427 15.8865 0.374674C15.3577 0.145921 14.7874 0.0285227 14.2113 0.0297954C11.8802 0.0297954 10.0054 1.91937 10.0054 4.23817C10.0054 4.56379 10.0448 4.88941 10.109 5.20269C6.61845 5.02015 3.50534 3.35259 1.43568 0.79944C1.05857 1.44356 0.86095 2.17697 0.863383 2.92336C0.863383 4.38371 1.60589 5.67139 2.73816 6.4287C2.0709 6.40242 1.41926 6.21901 0.836248 5.8934V5.9452C0.836248 7.99019 2.2818 9.68489 4.20838 10.0746C3.84664 10.1686 3.47452 10.2167 3.10078 10.2177C2.82696 10.2177 2.56795 10.1906 2.30647 10.1536C2.8393 11.8211 4.39092 13.0323 6.23856 13.0718C4.79301 14.2041 2.98237 14.8701 1.01633 14.8701C0.663572 14.8701 0.337953 14.8578 0 14.8183C1.86491 16.0147 4.07763 16.7054 6.46057 16.7054C14.1965 16.7054 18.4295 10.2967 18.4295 4.734C18.4295 4.55146 18.4295 4.36891 18.4172 4.18637C19.2362 3.58693 19.954 2.84442 20.5263 2.01064Z" fill="black"/>
</svg>

<svg width="21" height="17" fill="none" xmlns="http://www.w3.org/2000/svg"><path d="M20.526 2.01a8.435 8.435 0 01-2.422.652 4.196 4.196 0 001.85-2.319 8.304 8.304 0 01-2.67 1.016A4.196 4.196 0 0014.212.03a4.205 4.205 0 00-4.206 4.21c0 .325.04.65.104.964A11.954 11.954 0 011.436.799a4.177 4.177 0 00-.573 2.124c0 1.46.743 2.748 1.875 3.506a4.243 4.243 0 01-1.902-.536v.052a4.207 4.207 0 003.372 4.13 4.451 4.451 0 01-1.107.143 5.61 5.61 0 01-.795-.064 4.214 4.214 0 003.933 2.918 8.43 8.43 0 01-5.223 1.798A8.49 8.49 0 010 14.818a11.911 11.911 0 006.46 1.887c7.737 0 11.97-6.408 11.97-11.971 0-.183 0-.365-.013-.548a9.06 9.06 0 002.11-2.175z" fill="#000"/></svg>
